X:1
T:Title
%%score { ( 1 3 ) | 2 }
L:1/8
M:4/4
K:A
V:1 treble nm="Grand Piano"
V:3 treble 
V:2 bass 
V:1
 z4 z2[Q:1/4=94] [CE][CE] | [CA][CA] [CA]>[DB] [CA]2 [CE][CE] | [CA][CA] [CA]>[DB] [CA]2 [CA][DB] | %3
 [Ec]<[Ec] [Ec]>[Ec] c2 [Ee]2 | [EB]6 [EG][FA] | [GB][GB] [GB]>[Ac] [GB]2 [EG][FA] | %6
 [GB][GB] [GB]>[Ac] [GB]2 dd | c<c [FB]>[FB] [EA]2 [DG]2 | [CA]6 z2 | e<e e>e c2 [Ec]2 | %10
 A2- [FA-]2 [FA]2 [FA]>A | E<A A>A c2 [EAe]2 | [EGB]6 cd | e<e e>f e2 c>[EB] | %14
 [FA]>[FA] [FA][DF] [FA]2 [Fd][Fd] | c<c B>B A2 G2 |[M:3/4] [CA]6 |] %17
V:2
 z4 z2 [A,,A,][A,,A,] | [A,,E,][A,,E,] [A,,E,]>[A,,E,] [A,,E,]2 [A,,A,][A,,A,] | %2
 [A,,E,][A,,E,] [A,,E,]>[A,,E,] [A,,E,]2 [A,,E,][A,,E,] | %3
 [A,,A,]<[A,,A,] [A,,A,]>[A,,A,] [A,E]2 [C,A,]2 | [E,G,]6 [E,B,][E,B,] | %5
 [E,E][E,E] [E,E]>[E,E] [E,E]2 [E,B,][E,B,] | [E,E][E,E] [E,E]>[E,E] [E,E]2 [G,B,E][G,B,E] | %7
 [A,E]<[A,E] [D,D]>[D,D] [E,C]2 [E,B,]2 | [A,,A,]6 z2 | %9
 [A,CE]<[A,CE] [A,CE]>[A,CE] [A,E]2 [A,,A,]2 | [D,A,]2 [D,D]2 [D,D]2 [D,D]>[F,D] | %11
 [A,C]<[A,CE] [A,CE]>[A,CE] [A,E]2 C,2 | E,6[K:treble] [A,EA][A,B,A] | %13
 [A,CA]<[A,CA] [A,CA]>[A,DA] [A,CA]2[K:bass] [A,E]>[C,A,] | %14
 [D,D]>[D,D] [D,D][D,A,] [D,D]2 [D,A,][D,A,] | [E,A,E]<[E,A,E] [E,DE]>[E,DE] [E,CE]2 [E,B,D]2 | %16
[M:3/4] [A,,A,]6 |] %17
V:3
 x8 | x8 | x8 | x8 | x8 | x8 | x8 | x8 | x8 | x8 | F2 z2 z4 | x8 | x8 | x8 | x8 | x8 |[M:3/4] x6 |] %17

